X: 857
T: Gökyüzüne Çıksan
C: Ömer Sami Güpgüp
O: Turkey
F: http://compmusic.upf.edu/node/140
N: huzzam--sarki--curcuna--gokyuzune_ciksan--omer_sami_gupgup
N: makam= huzzam
N: form= sarki
N: usul= curcuna = 10/8
M: 10/8
L: 1/16
K: C _1/4B _3/4e ^3/4f 
Q: 1/4=156
%%MIDI tuningsystem comma53
B4 c2d2 _2/4e2d4g6  | g4 f2_2/4e2 f2d8-d2  | \
w:  Gök yü zü ne  çık san   |  ben  de  çı ka rım    | 
z4 f2f4f4_2/4e4d2  | z4 d2_2/4e2 d2c2 B2c6  | 
w:  Bu lut lar   |  i çin *  de   | 
z4 _7/8b2a2 g2f4g2 _2/4e2d2  | d6d3cB2 ^A2B6  | \
w:  a ra rım  *  *  *  se  |  ni   SAZ  | 
B4 c2d2 _2/4e2d4g6  | g4 f2_2/4e2 f2d8-d2  | 
w:  Gök yü zü ne  çık san   |  ben  de  çı ka rım    | 
z4 f2f4f4_2/4e4d2  | z4 d2_2/4e2 d2c2 B2c6  | \
w:  Bu lut lar   |  i çin *  de   | 
z4 _7/8b2a2 g2f4g2 _2/4e2d2  | 
w:  a ra rım  *  *  *  se  | 
d4 _7/8b2a2 g2f2 a2g6  | g6g4g4g6  | \
w:  ni   SAZ  |  Yağ mur  o lup   | 
a2g2 a2g2 g2f4g6  | g4 g4 _2/4e2e2 g2f6  | 
w:  yağ *  *  *  *  san   |  ben  *  de  ya ğa rım    | 
z4 B4 d2_2/4e4e4d2  | z4 f2f4g4_2/4e4d2  | \
w:  Dam *  la lar   |  i çin de   | 
z4 d2_2/4e2 f2e2 d2c2 c2d2  | 
w:  bu lu *  rum  *  *  *  se  | 
B4 _7/8b2a2 g2f2 a2g6  | g6g4g4g6  | \
w:  ni   SAZ  |  Yağ mur  o lup   | 
a2g2 a2g2 g2f4g6  | g4 g4 _2/4e2e2 g2f6  | 
w:  yağ *  *  *  *  san   |  ben  *  de  ya ğa rım    | 
z4 B4 d2_2/4e4e4d2  | z4 f2f4g4_2/4e4d2  | \
w:  Dam *  la lar   |  i çin de   | 
z4 d2_2/4e2 f2e2 d2c2 c2d2  | 
w:  bu lu *  rum  *  *  *  se  | 
B4 d2c2 B2^A2 B2B6  | g6g4g4g6  | a2g2 a2g2 g2f4g6  | \
w:  ni   SAZ  |  ARANAĞME  |   | 
g4 g4 _2/4e2e2 g2f6  | 
w:   | 
z4 B4 d2_2/4e4e4d2  | z4 f2f4g4_2/4e4d2  | \
w:   |   | 
z4 d2_2/4e2 f2e2 d2c2 c2d2  | 
w:   | 
B4 _7/8b2a2 g2f2 a2g6  | g6g4g4g6  | \
w:   |  ARANAĞME  | 
a2g2 a2g2 g2f4g6  | g4 g4 _2/4e2e2 g2f6  | 
w:   |   | 
z4 B4 d2_2/4e4e4d2  | z4 f2f4g4_2/4e4d2  | \
w:   |   | 
z4 d2_2/4e2 f2e2 d2c2 c2d2  | 
w:   | 
B4 f2_2/4e2 d2dc B^AB6  | B4 c2d2 _2/4e2d4g6  | \
w:   |  Baş ka  gön le  düş sen   | 
g4 f2_2/4e2 f2d2 d2d6  | 
w:  hır sız  *  *  o lu rum    | 
z4 f4 f2f4_2/4e4d2  | z4 d2_2/4e2 d2c2 B2c6  | \
w:  Gir di ğin   |  gö nül *  den   | 
z4 _7/8b2a2 g2f4g2 _2/4e2d2  | 
w:  ça la rım  *  *  *  se  | 
d6d3cB2 ^A2B6  | B4 c2d2 _2/4e2d4g6  | \
w:  ni   SAZ  |  Baş ka  gön le  düş sen   | 
g4 f2_2/4e2 f2d2 d2d6  | z4 f4 f2f4_2/4e4d2  | 
w:  hır sız  *  *  o lu rum    |  Gir di ğin   | 
z4 d2_2/4e2 d2c2 B2c6  | z4 _7/8b2a2 g2f4g2 _2/4e2d2  | \
w:  gö nül *  den   |  ça la rım  *  *  *  se  | 
d4 _7/8b2a2 g2f2 a2g6  | 
w:  ni   SAZ  | 
g8-g2g4g6  | a2g2 a2g2 g2f4g6  | g6_2/4e2 e2g4f6  | \
w:  Sev dâ mın   |  mev *  *  *  *  si mi   |  yıl la rı  sen sin    | 
z4 B4 d2_2/4e4e4d2  | 
w:  Öm *  rü mün   | 
z4 f6g4_2/4e4d2  | z4 d2_2/4e2 f2e2 d2c2 c2d2  | \
w:  koy nun *  da   |  sak *  la rım  *  *  *  se  | 
B4 _7/8b2a2 g2f2 a2g6  | 
w:  ni   SAZ  | 
g8-g2g4g6  | a2g2 a2g2 g2f4g6  | g6_2/4e2 e2g4f6  | \
w:  Sev dâ mın   |  mev *  *  *  *  si mi   |  yıl la rı  sen sin    | 
z4 B4 d2_2/4e4e4d2  | 
w:  Öm *  rü mün   | 
z4 f6g4_2/4e4d2  | z4 d2_2/4e2 f2e2 d2c2 c2d2  | \
w:  koy nun *  da   |  sak *  la rım  *  *  *  se  | 
B4 G2^A4Bc BAB6  | 
w:  ni   SAZ  | 
|


